src/xmb/retrosystem/Casio - Loopy-content.svg

<svg xmlns="http://www.w3.org/2000/svg" xml:space="preserve" width="256" height="256" viewBox="0 0 341.333 341.333"><g style="stroke:#1a1a1a;stroke-width:2.00000009;stroke-miterlimit:4;stroke-dasharray:none"><path d="M0 0s0 8-24 12-84 4-84 4h-8s-60 0-84-4-24-12-24-12v-156h16v-16h192v16H0Z" style="fill:#999;fill-opacity:1;fill-rule:nonzero;stroke:#1a1a1a;stroke-width:2.00000009;stroke-miterlimit:4;stroke-dasharray:none" transform="matrix(1.33333 0 0 -1.33333 320 69.333)"/></g><path d="M0 0h-28a4 4 0 0 0 0 8H0a4 4 0 0 0 0-8" style="fill:#8c8c8c;fill-opacity:1;fill-rule:nonzero;stroke:none" transform="matrix(1.33333 0 0 -1.33333 117.333 229.333)"/><path d="M0 0h-28a4 4 0 0 0 0 8H0a4 4 0 0 0 0-8" style="fill:#8c8c8c;fill-opacity:1;fill-rule:nonzero;stroke:none" transform="matrix(1.33333 0 0 -1.33333 266.667 229.333)"/><path d="M0 0h4.764a1 1 0 0 0 .894-1.447L3.276-6.211a1 1 0 0 0-1.789 0L-.895-1.447A1 1 0 0 0 0 0" style="fill:#a6a6a6;fill-opacity:1;fill-rule:nonzero;stroke:none" transform="matrix(1.33333 0 0 -1.33333 146.158 213.333)"/><path d="M0 0h4.765a1 1 0 0 0 .893-1.447L3.276-6.211a1 1 0 0 0-1.788 0L-.895-1.447A1 1 0 0 0 0 0" style="fill:#a6a6a6;fill-opacity:1;fill-rule:nonzero;stroke:none" transform="matrix(1.33333 0 0 -1.33333 198.668 213.333)"/><g style="fill:#e6e6e6"><path d="M0 0h-8c-39.422 0-73.448-2.698-84.35-3.663A4 4 0 0 1-96-7.647v-64.771a3.996 3.996 0 0 1 3.584-3.978C-82.622-77.406-53.091-80-8-80c1.349 0 2.675.009 4 .018C-2.675-79.991-1.349-80 0-80c45.091 0 74.622 2.594 84.416 3.604A3.996 3.996 0 0 1 88-72.418v64.771a4 4 0 0 1-3.649 3.984C73.448-2.698 39.422 0 0 0" style="fill:#e6e6e6;fill-opacity:1;fill-rule:nonzero;stroke:none" transform="matrix(1.33333 0 0 -1.33333 176 69.333)"/></g><g style="fill:#f0f;stroke:purple"><g style="fill:#f0f;stroke:purple"><path d="m0 0 14.062 12V6.757L20.009 12V3.946s4.088 7.676 4.336 7.676 9.726-.054 9.726-.054l-1.549-2.811h-5.637l-.805-1.514h3.159l-1.858-3.135h-2.416l-.682-1.243h11.398l.744 1.189h-5.699l4.398 7.622h9.911l-1.734-2.973h-5.637l-.929-1.46h5.823L38.469 0H15.735l.123 3.892L11.336 0l-.186 3.946L6.628 0Z" style="fill:#f0f;fill-opacity:1;fill-rule:nonzero;stroke:purple" transform="matrix(2.26697 0 0 -2.26694 107.741 136.336)"/></g><g style="fill:#f0f;stroke:purple"><path d="m0 0-.121.001-1.094-2.206Z" style="fill:#f0f;fill-opacity:1;fill-rule:nonzero;stroke:purple" transform="matrix(2.26697 0 0 -2.26694 209.835 110.113)"/></g><g style="fill:#f0f;stroke:purple"><path d="m0 0 1.735 2.973h-9.912l-4.398-7.622h5.699l-.743-1.189h-5.493l-1.684-2.865h9.964l4.089 7.244h-5.823L-5.637 0Z" style="fill:#f0f;fill-opacity:1;fill-rule:nonzero;stroke:purple" transform="matrix(2.26697 0 0 -2.26694 230.76 116.607)"/></g></g></svg>

<?xml version="1.0" encoding="UTF-8" standalone="no"?>
<svg
   xmlns:dc="http://purl.org/dc/elements/1.1/"
   xmlns:cc="http://creativecommons.org/ns#"
   xmlns:rdf="http://www.w3.org/1999/02/22-rdf-syntax-ns#"
   xmlns:svg="http://www.w3.org/2000/svg"
   xmlns="http://www.w3.org/2000/svg"
   xmlns:sodipodi="http://sodipodi.sourceforge.net/DTD/sodipodi-0.dtd"
   xmlns:inkscape="http://www.inkscape.org/namespaces/inkscape"
   viewBox="0 0 341.33334 341.33334"
   height="256"
   width="256"
   xml:space="preserve"
   id="svg2"
   version="1.1"
   sodipodi:docname="Casio - Loopy-content.svg"
   inkscape:version="0.92.3 (2405546, 2018-03-11)"><sodipodi:namedview
     pagecolor="#ffffff"
     bordercolor="#666666"
     borderopacity="1"
     objecttolerance="10"
     gridtolerance="10"
     guidetolerance="10"
     inkscape:pageopacity="0"
     inkscape:pageshadow="2"
     inkscape:window-width="1920"
     inkscape:window-height="1001"
     id="namedview30"
     showgrid="false"
     inkscape:pagecheckerboard="true"
     inkscape:zoom="1.9555921"
     inkscape:cx="157.22916"
     inkscape:cy="175.18358"
     inkscape:window-x="-9"
     inkscape:window-y="-9"
     inkscape:window-maximized="1"
     inkscape:current-layer="svg2" /><metadata
     id="metadata8"><rdf:RDF><cc:Work
         rdf:about=""><dc:format>image/svg+xml</dc:format><dc:type
           rdf:resource="http://purl.org/dc/dcmitype/StillImage" /><dc:title /></cc:Work></rdf:RDF></metadata><defs
     id="defs6"><clipPath
       id="clipPath18"
       clipPathUnits="userSpaceOnUse"><path
         id="path16"
         d="M 0,256 H 256 V 0 H 0 Z" /></clipPath><clipPath
       id="clipPath26"
       clipPathUnits="userSpaceOnUse"><path
         id="path24"
         d="M 8,228 H 248 V 24 H 8 Z" /></clipPath></defs><g
     id="g36"
     transform="matrix(1.3333333,0,0,-1.3333333,319.99999,69.333337)"
     style="stroke:#1a1a1a;stroke-width:2.00000009;stroke-miterlimit:4;stroke-dasharray:none"><path
       inkscape:connector-curvature="0"
       d="m 0,0 c 0,0 0,8 -24,12 -24,4 -84,4 -84,4 h -4 -4 c 0,0 -60,0 -84,-4 -24,-4 -24,-12 -24,-12 v -156 h 16 v -16 h 192 v 16 H 0 Z"
       style="fill:#999999;fill-opacity:1;fill-rule:nonzero;stroke:#1a1a1a;stroke-width:2.00000009;stroke-miterlimit:4;stroke-dasharray:none"
       id="path38" /></g><g
     id="g40"
     transform="matrix(1.3333333,0,0,-1.3333333,117.33333,229.33333)"><path
       inkscape:connector-curvature="0"
       d="m 0,0 h -28 c -2.209,0 -4,1.791 -4,4 0,2.209 1.791,4 4,4 H 0 C 2.209,8 4,6.209 4,4 4,1.791 2.209,0 0,0"
       style="fill:#8c8c8c;fill-opacity:1;fill-rule:nonzero;stroke:none"
       id="path42" /></g><g
     id="g44"
     transform="matrix(1.3333333,0,0,-1.3333333,266.66666,229.33333)"><path
       inkscape:connector-curvature="0"
       d="m 0,0 h -28 c -2.209,0 -4,1.791 -4,4 0,2.209 1.791,4 4,4 H 0 C 2.209,8 4,6.209 4,4 4,1.791 2.209,0 0,0"
       style="fill:#8c8c8c;fill-opacity:1;fill-rule:nonzero;stroke:none"
       id="path46" /></g><g
     id="g48"
     transform="matrix(1.3333333,0,0,-1.3333333,146.1576,213.33333)"><path
       inkscape:connector-curvature="0"
       d="M 0,0 H 4.764 C 5.507,0 5.991,-0.782 5.658,-1.447 L 3.276,-6.211 c -0.368,-0.737 -1.42,-0.737 -1.789,0 l -2.382,4.764 C -1.227,-0.782 -0.744,0 0,0"
       style="fill:#a6a6a6;fill-opacity:1;fill-rule:nonzero;stroke:none"
       id="path50" /></g><g
     id="g52"
     transform="matrix(1.3333333,0,0,-1.3333333,198.668,213.33333)"><path
       inkscape:connector-curvature="0"
       d="M 0,0 H 4.765 C 5.508,0 5.991,-0.782 5.658,-1.447 L 3.276,-6.211 c -0.368,-0.737 -1.42,-0.737 -1.788,0 l -2.383,4.764 C -1.227,-0.782 -0.743,0 0,0"
       style="fill:#a6a6a6;fill-opacity:1;fill-rule:nonzero;stroke:none"
       id="path54" /></g><g
     id="g56"
     transform="matrix(1.3333333,0,0,-1.3333333,176,69.333337)"
     style="fill:#e6e6e6"><path
       inkscape:connector-curvature="0"
       d="M 0,0 H -4 -8 C -47.422,0 -81.448,-2.698 -92.35,-3.663 -94.416,-3.845 -96,-5.574 -96,-7.647 v -64.771 c 0,-2.049 1.546,-3.768 3.584,-3.978 C -82.622,-77.406 -53.091,-80 -8,-80 c 1.349,0 2.675,0.009 4,0.018 1.325,-0.009 2.651,-0.018 4,-0.018 45.091,0 74.622,2.594 84.416,3.604 2.038,0.21 3.584,1.929 3.584,3.978 v 64.771 c 0,2.073 -1.584,3.802 -3.649,3.984 C 73.448,-2.698 39.422,0 0,0"
       style="fill:#e6e6e6;fill-opacity:1;fill-rule:nonzero;stroke:none"
       id="path58" /></g><g
     id="g872"
     transform="matrix(1.7002312,0,0,1.7002037,-166.49831,-283.8289)"
     style="fill:#ff00ff;stroke:#800080"><g
       transform="matrix(1.3333333,0,0,-1.3333333,161.29535,247.12598)"
       id="g102"
       style="fill:#ff00ff;stroke:#800080"><path
         id="path104"
         style="fill:#ff00ff;fill-opacity:1;fill-rule:nonzero;stroke:#800080"
         d="M 0,0 14.062,12 V 6.757 L 20.009,12 V 3.946 c 0,0 4.088,7.676 4.336,7.676 0.248,0 9.726,-0.054 9.726,-0.054 L 32.522,8.757 H 26.885 L 26.08,7.243 h 3.159 L 27.381,4.108 H 24.965 L 24.283,2.865 h 11.398 l 0.744,1.189 h -5.699 l 4.398,7.622 h 9.911 L 43.301,8.703 h -5.637 l -0.929,-1.46 h 5.823 L 38.469,0 H 15.735 L 15.858,3.892 11.336,0 11.15,3.946 6.628,0 Z"
         inkscape:connector-curvature="0" /></g><g
       transform="matrix(1.3333333,0,0,-1.3333333,221.34254,231.7025)"
       id="g106"
       style="fill:#ff00ff;stroke:#800080"><path
         id="path108"
         style="fill:#ff00ff;fill-opacity:1;fill-rule:nonzero;stroke:#800080"
         d="M 0,0 C 0,0 -0.044,0 -0.121,0.001 L -1.215,-2.205 Z"
         inkscape:connector-curvature="0" /></g><g
       transform="matrix(1.3333333,0,0,-1.3333333,233.64934,235.52238)"
       id="g110"
       style="fill:#ff00ff;stroke:#800080"><path
         id="path112"
         style="fill:#ff00ff;fill-opacity:1;fill-rule:nonzero;stroke:#800080"
         d="m 0,0 1.735,2.973 h -9.912 l -4.398,-7.622 h 5.699 l -0.743,-1.189 h -5.493 l -1.684,-2.865 h 9.964 l 4.089,7.244 H -6.566 L -5.637,0 Z"
         inkscape:connector-curvature="0" /></g></g></svg>
